X:120
T:Coille an Togail
T:Cheap Mutton
R:Strathspey
C:Niel Gow
B:The Athole Collection
M:C
L:1/8
K:G Minor
D<G G>B A>G F<C|D>G G>B A>G g2|f<ad<f cfAF|D>GB>G A>^F G2:|
G<g g>a fc f2|G<g g>a ^f>d ~g2|=f<ad<f c<f A>F|D>GB>G A>^F G2|
G<g ~g>a fc f2|G<g ~g>a ^fd ~g2|=f<ad<f c<f A>F|D>GB>G A>^F G2||

